X:8
T:The Flowers of the Forest
Z:Jack Campin, http://www.campin.me.uk
F:http://www.campin.me.uk/Music/Flodden.abc
I:last edit 28-05-2013
C:"common version" 
B:Dauney, Ancient Scotish Melodies
M:4/4
L:1/8
Q:1/4=60
K:BbMix
G   |F2 ~F>G    (3FGB (3cde|{e}d2 cB  G>B (3GFD|(3CDF F>G    (3FGB (3cde     |d2 c>B B3:|
z   |A2  A/c/B/A/ G2  (3FGB|   Fd c>B G>B (3GFD|  A2  A/c/B/A/ G2    F/G/B/G/|Fd c>B B3
F/G/|A2  A/c/B/A/ G2  (3FGB|   Fd c>B G>B (3GFD|(3CDF F>G      FG    B/c/d/e/|d2 c>B B3|]

